icons/circle/48/nicotine-plus.svg

<svg xmlns="http://www.w3.org/2000/svg" viewBox="0 0 48 48">
 <defs>
  <linearGradient id="linearGradient3764" x1="1" x2="47" gradientUnits="userSpaceOnUse" gradientTransform="matrix(0,-1,1,0,-1.5e-6,47.999998)">
   <stop style="stop-color:#fb8715;stop-opacity:1"/>
   <stop offset="1" style="stop-color:#fb932a;stop-opacity:1"/>
  </linearGradient>
 </defs>
 <g>
  <path d="m 36.31 5 c 5.859 4.062 9.688 10.831 9.688 18.5 c 0 12.426 -10.07 22.5 -22.5 22.5 c -7.669 0 -14.438 -3.828 -18.5 -9.688 c 1.037 1.822 2.306 3.499 3.781 4.969 c 4.085 3.712 9.514 5.969 15.469 5.969 c 12.703 0 23 -10.298 23 -23 c 0 -5.954 -2.256 -11.384 -5.969 -15.469 c -1.469 -1.475 -3.147 -2.744 -4.969 -3.781 z m 4.969 3.781 c 3.854 4.113 6.219 9.637 6.219 15.719 c 0 12.703 -10.297 23 -23 23 c -6.081 0 -11.606 -2.364 -15.719 -6.219 c 4.16 4.144 9.883 6.719 16.219 6.719 c 12.703 0 23 -10.298 23 -23 c 0 -6.335 -2.575 -12.06 -6.719 -16.219 z" style="opacity:0.05"/>
  <path d="m 41.28 8.781 c 3.712 4.085 5.969 9.514 5.969 15.469 c 0 12.703 -10.297 23 -23 23 c -5.954 0 -11.384 -2.256 -15.469 -5.969 c 4.113 3.854 9.637 6.219 15.719 6.219 c 12.703 0 23 -10.298 23 -23 c 0 -6.081 -2.364 -11.606 -6.219 -15.719 z" style="opacity:0.1"/>
  <path d="m 31.25 2.375 c 8.615 3.154 14.75 11.417 14.75 21.13 c 0 12.426 -10.07 22.5 -22.5 22.5 c -9.708 0 -17.971 -6.135 -21.12 -14.75 a 23 23 0 0 0 44.875 -7 a 23 23 0 0 0 -16 -21.875 z" style="opacity:0.2"/>
 </g>
 <g>
  <path d="m 24 1 c 12.703 0 23 10.297 23 23 c 0 12.703 -10.297 23 -23 23 -12.703 0 -23 -10.297 -23 -23 0 -12.703 10.297 -23 23 -23 z" style="fill:url(#linearGradient3764);fill-opacity:1"/>
  <path d="m 25.03 16.938 c -3.445 0 -6.598 1.286 -8.75 3.439 c -2.156 2.156 -3.313 5.184 -3.313 8.625 l 0 15.182 c 1.256 0.688 2.584 1.26 3.969 1.707 l 0 -16.889 c 0 -2.555 0.871 -4.498 2.219 -5.846 c 1.344 -1.344 3.316 -2.125 5.875 -2.125 c 2.555 0 4.402 0.781 5.75 2.125 c 1.344 1.348 2.219 3.291 2.219 5.846 l 0 16.17 c 1.412 -0.601 2.75 -1.341 4 -2.199 l 0 -13.973 c 0 -3.441 -1.191 -6.469 -3.344 -8.625 c -2.156 -2.152 -5.184 -3.439 -8.625 -3.439 z" style="fill:#000;fill-opacity:0.098"/>
  <path d="m 24.03 15.938 c -3.445 0 -6.598 1.286 -8.75 3.439 c -2.156 2.156 -3.313 5.184 -3.313 8.625 l 0 15.6 c 1.249 0.768 2.577 1.42 3.969 1.941 l 0 -17.541 c 0 -2.555 0.871 -4.498 2.219 -5.846 c 1.344 -1.344 3.316 -2.125 5.875 -2.125 c 2.555 0 4.402 0.781 5.75 2.125 c 1.344 1.348 2.219 3.291 2.219 5.846 l 0 17.566 c 1.403 -0.521 2.741 -1.174 4 -1.945 l 0 -15.621 c 0 -3.441 -1.191 -6.469 -3.344 -8.625 c -2.156 -2.152 -5.184 -3.439 -8.625 -3.439 z" style="fill:#f9f9f9;fill-opacity:1"/>
 </g>
 <g>
  <g>
   <g transform="translate(1,1)">
    <g style="opacity:0.1">
     <!-- color: #fb932a -->
    </g>
   </g>
  </g>
 </g>
 <g>
  <g>
   <!-- color: #fb932a -->
  </g>
 </g>
 <g>
  <path d="m 40.03 7.531 c 3.712 4.084 5.969 9.514 5.969 15.469 0 12.703 -10.297 23 -23 23 c -5.954 0 -11.384 -2.256 -15.469 -5.969 4.178 4.291 10.01 6.969 16.469 6.969 c 12.703 0 23 -10.298 23 -23 0 -6.462 -2.677 -12.291 -6.969 -16.469 z" style="opacity:0.1"/>
 </g>
</svg>

<svg xmlns="http://www.w3.org/2000/svg" viewBox="0 0 48 48">
  <defs>
    <linearGradient id="a" x1="1" x2="47" gradientUnits="userSpaceOnUse" gradientTransform="rotate(-90 24 24)">
      <stop stop-color="#fb8715"/>
      <stop offset="1" stop-color="#fb932a"/>
    </linearGradient>
  </defs>
  <path d="M36.31 5c5.859 4.062 9.688 10.831 9.688 18.5 0 12.426-10.07 22.5-22.5 22.5-7.669 0-14.438-3.828-18.5-9.688a23.24 23.24 0 0 0 3.781 4.969 22.923 22.923 0 0 0 15.469 5.969c12.703 0 23-10.298 23-23a22.92 22.92 0 0 0-5.969-15.469A23.216 23.216 0 0 0 36.31 5zm4.969 3.781A22.911 22.911 0 0 1 47.498 24.5c0 12.703-10.297 23-23 23a22.909 22.909 0 0 1-15.719-6.219C12.939 45.425 18.662 48 24.998 48c12.703 0 23-10.298 23-23 0-6.335-2.575-12.06-6.719-16.219z" opacity=".05"/>
  <path d="M41.28 8.781a22.923 22.923 0 0 1 5.969 15.469c0 12.703-10.297 23-23 23A22.92 22.92 0 0 1 8.78 41.281 22.911 22.911 0 0 0 24.499 47.5c12.703 0 23-10.298 23-23A22.909 22.909 0 0 0 41.28 8.781z" opacity=".1"/>
  <path d="M31.25 2.375C39.865 5.529 46 13.792 46 23.505c0 12.426-10.07 22.5-22.5 22.5-9.708 0-17.971-6.135-21.12-14.75a23 23 0 0 0 44.875-7 23 23 0 0 0-16-21.875z" opacity=".2"/>
  <path d="M24 1c12.703 0 23 10.297 23 23S36.703 47 24 47 1 36.703 1 24 11.297 1 24 1z" fill="url(#a)"/>
  <path d="M25.03 16.938c-3.445 0-6.598 1.286-8.75 3.439-2.156 2.156-3.313 5.184-3.313 8.625v15.182a22.896 22.896 0 0 0 3.969 1.707V29.002c0-2.555.871-4.498 2.219-5.846 1.344-1.344 3.316-2.125 5.875-2.125 2.555 0 4.402.781 5.75 2.125 1.344 1.348 2.219 3.291 2.219 5.846v16.17a22.959 22.959 0 0 0 4-2.199V29c0-3.441-1.191-6.469-3.344-8.625-2.156-2.152-5.184-3.439-8.625-3.439z" fill-opacity=".098"/>
  <path d="M24.03 15.938c-3.445 0-6.598 1.286-8.75 3.439-2.156 2.156-3.313 5.184-3.313 8.625v15.6a22.907 22.907 0 0 0 3.969 1.941V28.002c0-2.555.871-4.498 2.219-5.846 1.344-1.344 3.316-2.125 5.875-2.125 2.555 0 4.402.781 5.75 2.125 1.344 1.348 2.219 3.291 2.219 5.846v17.566a22.967 22.967 0 0 0 4-1.945V28.002c0-3.441-1.191-6.469-3.344-8.625-2.156-2.152-5.184-3.439-8.625-3.439z" fill="#f9f9f9"/>
  <g>
    <path d="M40.03 7.531A22.922 22.922 0 0 1 45.999 23c0 12.703-10.297 23-23 23A22.92 22.92 0 0 1 7.53 40.031C11.708 44.322 17.54 47 23.999 47c12.703 0 23-10.298 23-23 0-6.462-2.677-12.291-6.969-16.469z" opacity=".1"/>
  </g>
</svg>
